X:0
T:Dundee
G:psalm tune
M:2/2
L:1/2
Q:1/2=80
K:AMin
A|AB|cB|AA|^G||c|ed|c B|c||
c|ed|cB|AA|^G||c|BA|A^G|A|]

This proved impossible for most people in England and even more in Scotland,
particularly in the Highlands, to sing without instrumental accompaniment
(which in Scotland was prohibited for centuries).  They found two alternate
strategies for dealing with the sharpened seventh they'd had foisted on them.
One was to ignore the books and carry on singing what they had always done.
The other was to replace the seventh (the third in the major chord) with
a fifth (the root of the major chord).  This, after a cascade of melodic
adjustments, finally led to a new tune, back in the same mode as "Dundee":

